src/icons/typescript.svg

<svg width="64" height="64" viewBox="0 0 64 64" fill="none" xmlns="http://www.w3.org/2000/svg">
<path d="M57.75 0H6.25C2.79822 0 0 2.79822 0 6.25V57.75C0 61.2018 2.79822 64 6.25 64H57.75C61.2018 64 64 61.2018 64 57.75V6.25C64 2.79822 61.2018 0 57.75 0Z" fill="#3178C6"/>
<path d="M57.75 0H6.25C2.79822 0 0 2.79822 0 6.25V57.75C0 61.2018 2.79822 64 6.25 64H57.75C61.2018 64 64 61.2018 64 57.75V6.25C64 2.79822 61.2018 0 57.75 0Z" fill="#3178C6"/>
<path fill-rule="evenodd" clip-rule="evenodd" d="M39.6174 50.928V57.1856C40.6346 57.7071 41.8377 58.0981 43.2267 58.3589C44.6157 58.6196 46.0796 58.75 47.6186 58.75C49.1185 58.75 50.5432 58.6066 51.8931 58.3198C53.243 58.033 54.4266 57.5604 55.4439 56.902C56.4611 56.2438 57.2665 55.3833 57.8599 54.3208C58.4532 53.2583 58.75 51.9449 58.75 50.3805C58.75 49.2463 58.5805 48.2523 58.2414 47.3984C57.9022 46.5445 57.4132 45.7851 56.7741 45.1203C56.1351 44.4554 55.3689 43.8589 54.4755 43.3309C53.5821 42.8029 52.5746 42.3042 51.453 41.835C50.6314 41.496 49.8945 41.1669 49.2424 40.8475C48.5902 40.528 48.036 40.2021 47.5795 39.8698C47.123 39.5373 46.7709 39.1853 46.5231 38.8138C46.2754 38.4421 46.1514 38.0218 46.1514 37.5524C46.1514 37.1223 46.2623 36.7344 46.484 36.3889C46.7058 36.0434 47.0188 35.7469 47.423 35.4991C47.8274 35.2515 48.3229 35.0591 48.9098 34.9222C49.4968 34.7854 50.1487 34.717 50.8661 34.717C51.3877 34.717 51.9388 34.7561 52.5191 34.8343C53.0995 34.9125 53.6831 35.0331 54.2701 35.196C54.857 35.359 55.4275 35.5644 55.9819 35.812C56.5361 36.0598 57.048 36.3465 57.5175 36.6725V30.8255C56.5655 30.4605 55.5254 30.19 54.3973 30.014C53.2691 29.838 51.9746 29.75 50.514 29.75C49.0271 29.75 47.6186 29.9097 46.2884 30.2291C44.9581 30.5485 43.7876 31.0471 42.7767 31.725C41.766 32.403 40.9672 33.2666 40.3804 34.3161C39.7935 35.3655 39.5 36.6203 39.5 38.0804C39.5 39.9446 40.038 41.5351 41.114 42.8519C42.1899 44.1685 43.8234 45.2831 46.0145 46.1958C46.8752 46.5478 47.6774 46.8931 48.4207 47.2321C49.1641 47.5711 49.8065 47.9231 50.3476 48.2881C50.8889 48.6531 51.316 49.0507 51.6291 49.481C51.9421 49.9111 52.0986 50.4 52.0986 50.9476C52.0986 51.3517 52.0008 51.7265 51.8051 52.072C51.6095 52.4175 51.3128 52.7173 50.915 52.9715C50.5173 53.2258 50.0216 53.4245 49.4282 53.5679C48.8347 53.7114 48.1404 53.783 47.3447 53.783C45.9884 53.783 44.6451 53.5451 43.3148 53.0692C41.9845 52.5935 40.752 51.8798 39.6174 50.928V50.928ZM29.0975 35.5103H37.125V30.375H14.75V35.5103H22.7383V58.375H29.0975V35.5103Z" fill="white"/>
</svg>

<svg xmlns="http://www.w3.org/2000/svg" fill="none" viewBox="0 0 64 64"><path fill="#3178C6" d="M57.75 0H6.25A6.25 6.25 0 000 6.25v51.5A6.25 6.25 0 006.25 64h51.5A6.25 6.25 0 0064 57.75V6.25A6.25 6.25 0 0057.75 0z"/><path fill="#3178C6" d="M57.75 0H6.25A6.25 6.25 0 000 6.25v51.5A6.25 6.25 0 006.25 64h51.5A6.25 6.25 0 0064 57.75V6.25A6.25 6.25 0 0057.75 0z"/><path fill="#fff" fill-rule="evenodd" d="M39.617 50.928v6.258c1.018.521 2.22.912 3.61 1.173a23.78 23.78 0 004.392.391c1.5 0 2.924-.143 4.274-.43 1.35-.287 2.534-.76 3.55-1.418a7.224 7.224 0 002.417-2.581c.593-1.063.89-2.376.89-3.94 0-1.135-.17-2.129-.509-2.983a6.97 6.97 0 00-1.467-2.278 10.742 10.742 0 00-2.299-1.79 24.62 24.62 0 00-3.022-1.495 38.048 38.048 0 01-2.21-.988 11.23 11.23 0 01-1.663-.977c-.457-.333-.81-.685-1.057-1.056a2.223 2.223 0 01-.372-1.262c0-.43.111-.818.333-1.163.222-.346.535-.642.939-.89.404-.248.9-.44 1.487-.577a8.63 8.63 0 011.956-.205 13.07 13.07 0 013.404.479c.587.163 1.158.368 1.712.616a9.44 9.44 0 011.535.86v-5.846a15.277 15.277 0 00-3.12-.812c-1.128-.176-2.422-.264-3.883-.264-1.487 0-2.895.16-4.226.48-1.33.319-2.5.817-3.511 1.495a7.474 7.474 0 00-2.397 2.591c-.587 1.05-.88 2.304-.88 3.764 0 1.865.538 3.455 1.614 4.772 1.076 1.317 2.71 2.431 4.9 3.344.861.352 1.663.697 2.407 1.036.743.34 1.386.691 1.927 1.056.54.365.968.763 1.281 1.193.313.43.47.919.47 1.467 0 .404-.098.779-.294 1.124-.196.345-.492.645-.89.9-.398.254-.893.453-1.487.596-.593.143-1.288.215-2.083.215-1.357 0-2.7-.238-4.03-.714a12.024 12.024 0 01-3.698-2.141zM29.097 35.51h8.028v-5.135H14.75v5.135h7.988v22.865h6.36V35.51z" clip-rule="evenodd"/></svg>
